packages/icons/src/activity-log.svg

<svg width="15" height="15" viewBox="0 0 15 15" fill="none" xmlns="http://www.w3.org/2000/svg">
  <path
    fill-rule="evenodd"
    clip-rule="evenodd"
    d="M0 1.5C0 1.22386 0.223858 1 0.5 1H2.5C2.77614 1 3 1.22386 3 1.5C3 1.77614 2.77614 2 2.5 2H0.5C0.223858 2 0 1.77614 0 1.5ZM4 1.5C4 1.22386 4.22386 1 4.5 1H14.5C14.7761 1 15 1.22386 15 1.5C15 1.77614 14.7761 2 14.5 2H4.5C4.22386 2 4 1.77614 4 1.5ZM4 4.5C4 4.22386 4.22386 4 4.5 4H11.5C11.7761 4 12 4.22386 12 4.5C12 4.77614 11.7761 5 11.5 5H4.5C4.22386 5 4 4.77614 4 4.5ZM0 7.5C0 7.22386 0.223858 7 0.5 7H2.5C2.77614 7 3 7.22386 3 7.5C3 7.77614 2.77614 8 2.5 8H0.5C0.223858 8 0 7.77614 0 7.5ZM4 7.5C4 7.22386 4.22386 7 4.5 7H14.5C14.7761 7 15 7.22386 15 7.5C15 7.77614 14.7761 8 14.5 8H4.5C4.22386 8 4 7.77614 4 7.5ZM4 10.5C4 10.2239 4.22386 10 4.5 10H11.5C11.7761 10 12 10.2239 12 10.5C12 10.7761 11.7761 11 11.5 11H4.5C4.22386 11 4 10.7761 4 10.5ZM0 13.5C0 13.2239 0.223858 13 0.5 13H2.5C2.77614 13 3 13.2239 3 13.5C3 13.7761 2.77614 14 2.5 14H0.5C0.223858 14 0 13.7761 0 13.5ZM4 13.5C4 13.2239 4.22386 13 4.5 13H14.5C14.7761 13 15 13.2239 15 13.5C15 13.7761 14.7761 14 14.5 14H4.5C4.22386 14 4 13.7761 4 13.5Z"
    fill="currentColor"
  />
</svg>

<svg xmlns="http://www.w3.org/2000/svg" width="15" height="15" fill="none"><path fill="currentColor" fill-rule="evenodd" d="M0 1.5A.5.5 0 0 1 .5 1h2a.5.5 0 0 1 0 1h-2a.5.5 0 0 1-.5-.5m4 0a.5.5 0 0 1 .5-.5h10a.5.5 0 0 1 0 1h-10a.5.5 0 0 1-.5-.5m0 3a.5.5 0 0 1 .5-.5h7a.5.5 0 0 1 0 1h-7a.5.5 0 0 1-.5-.5m-4 3A.5.5 0 0 1 .5 7h2a.5.5 0 0 1 0 1h-2a.5.5 0 0 1-.5-.5m4 0a.5.5 0 0 1 .5-.5h10a.5.5 0 0 1 0 1h-10a.5.5 0 0 1-.5-.5m0 3a.5.5 0 0 1 .5-.5h7a.5.5 0 0 1 0 1h-7a.5.5 0 0 1-.5-.5m-4 3a.5.5 0 0 1 .5-.5h2a.5.5 0 0 1 0 1h-2a.5.5 0 0 1-.5-.5m4 0a.5.5 0 0 1 .5-.5h10a.5.5 0 0 1 0 1h-10a.5.5 0 0 1-.5-.5" clip-rule="evenodd"/></svg>
